X: 39998
T: Three Little Boats
R: slide
M: 12/8
K: Aminor
G|EAA A2 B|c3 B3|cBA AGA|BAG E2 D|
EAA A2 B|c2 d e3|efe dcB|A3 A2 G|
EAA A2 B|cBc BAB|cBA AGA|BAG E2 D|
EAA A2 B|c2 d ecd|efe dcB|A3 A2||
B|cBA A2 B|c2 d e2 e|fed e2 e|fed e2 d|
cBA A2 B|c2 d ecd|efe dcB|A3 A2 B|
cBA A2 B|c2 d e2 e|fed efe|fed e2 d|
cBA A2 B|c2 d e>cd|efe dcB|A3 A2||

